icons/4_Outdated/Republic Wireless v1.svg

<svg width="1024" height="1024" viewBox="0 0 1024 1024" fill="none" xmlns="http://www.w3.org/2000/svg">
<g clip-path="url(#clip0_3_659)">
<path d="M512 1024C794.77 1024 1024 794.77 1024 512C1024 229.23 794.77 0 512 0C229.23 0 0 229.23 0 512C0 794.77 229.23 1024 512 1024Z" fill="#98DC9A"/>
<path d="M362.14 466.84V532.57C369.161 535.272 376.618 536.662 384.14 536.67C406.54 536.67 418.87 516.67 419.05 499.34C419.24 481.79 406.73 463.86 384.14 463.86C376.697 463.731 369.277 464.743 362.14 466.86M347.57 614.66V456.57C359.89 452.46 372.22 451.34 384.16 451.16C415.91 451.16 433.64 474.67 433.64 499.16C433.46 523.63 415.91 549.75 384.16 549.75C376.515 549.792 368.971 548.002 362.16 544.53V614.68L347.57 614.66ZM539.21 541.77C526.51 546.26 515.12 549.06 501.67 549.06C474.97 549.06 453.32 533.75 453.32 505.55V451.77H467.89V505.54C467.89 525.72 483 536 501.5 536C509.5 536 517.18 535.44 524.5 532.64V451.64H539.26V541.82L539.21 541.77ZM636.13 499.77C635.94 482.22 623.8 462.99 601.21 462.99C593.741 462.994 586.339 464.388 579.38 467.1V533.38C586.28 535.43 593.94 535.99 601.21 536.18C624 536.18 636.32 517.18 636.13 499.78M579.38 415V455C586.139 451.574 593.634 449.857 601.21 450C632.96 450 650.51 475.39 650.51 499.85C650.7 524.3 633.15 548.77 601.21 548.77C589.45 548.77 576.94 547.65 564.81 543.54V415H579.38ZM701.55 547C682.13 549.05 671.67 539.54 671.67 518.8V415H686.42V518.8C686.42 529.45 689.21 535.05 701.54 534.11V547H701.55ZM726.15 483.86H740.89V546.62H726.15V483.87V483.86ZM726 450.08H741.13V470.17H726V450.08ZM836 472.69C829.147 466.321 820.095 462.848 810.74 463C793.37 462.81 777.32 477.38 777.12 499.6C777.12 516.97 788.33 535.07 810.92 535.07C820.506 534.89 829.686 531.167 836.69 524.62L844.91 534.51C835.814 543.354 823.596 548.253 810.91 548.14C778.79 548.14 762.55 523.86 762.55 499.22C762.74 474.58 779.35 449.93 810.91 449.75C824.17 449.75 834.81 453.86 843.96 462.82L835.96 472.72L836 472.69ZM178.4 452.93L179.89 465.26C191.1 447.32 213.52 450.88 224.35 455.55L220.43 463.55C218.822 462.771 217.149 462.132 215.43 461.64C198.63 456.84 179.57 466.71 180.08 486.9V547.61H170.5V452.93H178.4ZM317 495C315.88 474.63 301.31 461 281.7 460.63C259.7 460.82 247.7 475.95 245.09 495H317ZM310.46 527.5L317.74 532.5C308.74 543.5 296.07 548.94 281.87 548.94C251.42 548.94 235.87 522.94 236.1 499.44C236.1 475.72 251.98 451.8 281.68 451.62C307.46 451.44 325.58 471.62 325.58 497.01C325.58 499.25 325.39 500.74 325.21 503.17H245C246.31 521.85 259.38 539.79 281.8 539.79C292.45 539.79 303.66 535.87 310.38 527.45M430.65 599L426.52 614.38H420.52L412.52 583.75H417.69L422.86 604.86L423.56 610.07H423.73L424.55 604.86L429.12 587.39H434.59L439.15 604.86L439.97 610.07H440.14L440.84 604.86L446 583.74H451.17L443.17 614.37H437.17L433 599L431.91 593H431.74L430.65 599ZM490.71 583.71H495.71V614.26H490.71V583.7V583.71ZM546.29 598.08C549.72 598.08 551.9 596.35 551.9 593.22C551.9 590.09 549.6 588.31 546.29 588.31H541.29V598.08H546.29ZM558.29 614.25H552.38L543.38 602.47H541.25V614.25H536.25V583.79H546.25C552.25 583.79 556.81 586.48 556.9 593.21C556.9 598.73 553.47 601.64 549.08 602.29L558.25 614.29L558.29 614.25ZM613.48 588.13H601.36V596.74H613.27V601.22H601.36V609.69H613.48V614.21H596.37V583.66H613.44V588.13H613.48ZM669.98 614.25H653.78V583.82H658.78V609.68H669.95V614.24L669.98 614.25ZM725.98 588.13H713.88V596.74H725.79V601.22H713.88V609.69H726V614.21H708.89V583.66H726V588.13H725.98ZM774.83 596.39C779.53 597.61 784.43 599.57 784.18 606.39C783.87 612.17 778.7 614.91 773.93 614.91C771.732 614.93 769.582 614.267 767.777 613.014C765.971 611.76 764.599 609.977 763.85 607.91L767.63 605.91C769.07 609 771.5 610.39 774.06 610.39C777.06 610.39 779.14 608.69 779.27 606.13C779.53 602.48 776.05 601.35 773.53 600.69C769.67 599.69 764.53 597.74 764.76 591.62C764.89 585.62 769.76 583.06 774.36 583.06C776.44 583.05 778.47 583.7 780.157 584.916C781.845 586.133 783.102 587.853 783.75 589.83L779.84 591.62C779.447 590.453 778.709 589.433 777.723 588.696C776.737 587.958 775.55 587.537 774.32 587.49C773.729 587.445 773.134 587.521 772.573 587.714C772.012 587.906 771.497 588.212 771.058 588.61C770.619 589.009 770.266 589.493 770.02 590.033C769.775 590.573 769.642 591.157 769.63 591.75C769.46 594.62 772.63 595.75 774.84 596.35M833.52 596.35C838.21 597.57 843.12 599.53 842.86 606.35C842.55 612.13 837.39 614.87 832.6 614.87C830.402 614.89 828.252 614.227 826.447 612.974C824.641 611.72 823.269 609.937 822.52 607.87L826.3 605.87C827.73 608.96 830.16 610.35 832.73 610.35C835.73 610.35 837.81 608.65 837.94 606.09C838.21 602.44 834.73 601.31 832.21 600.65C828.35 599.65 823.21 597.7 823.43 591.58C823.56 585.58 828.43 583.02 833.03 583.02C835.111 583.007 837.142 583.656 838.83 584.873C840.518 586.09 841.775 587.812 842.42 589.79L838.51 591.58C838.119 590.412 837.381 589.392 836.395 588.654C835.408 587.916 834.221 587.496 832.99 587.45C832.398 587.404 831.802 587.479 831.24 587.671C830.678 587.863 830.161 588.167 829.721 588.566C829.281 588.965 828.927 589.45 828.681 589.991C828.435 590.531 828.302 591.116 828.29 591.71C828.12 594.58 831.29 595.71 833.51 596.31M809.78 428.09C803.935 428.077 798.146 429.219 792.743 431.45C787.341 433.681 782.433 436.957 778.3 441.09L765.06 427.85C770.933 421.977 777.906 417.318 785.58 414.139C793.254 410.96 801.479 409.324 809.785 409.324C818.091 409.324 826.316 410.96 833.99 414.139C841.664 417.318 848.637 421.977 854.51 427.85L841.27 441.09C837.137 436.957 832.229 433.681 826.827 431.45C821.424 429.219 815.635 428.077 809.79 428.09H809.78Z" fill="white"/>
</g>
<defs>
<clipPath id="clip0_3_659">
<rect width="1024" height="1024" fill="white"/>
</clipPath>
</defs>
</svg>

<svg xmlns="http://www.w3.org/2000/svg" width="1024" height="1024" fill="none">
   <g clip-path="url(#a)">
      <path fill="#98DC9A" d="M512 1024c282.77 0 512-229.23 512-512S794.77 0 512 0 0 229.23 0 512s229.23 512 512 512Z"/>
      <path fill="#fff" d="M362.14 466.84v65.73a61.435 61.435 0 0 0 22 4.1c22.4 0 34.73-20 34.91-37.33.19-17.55-12.32-35.48-34.91-35.48a72.922 72.922 0 0 0-22 3m-14.57 147.8V456.57c12.32-4.11 24.65-5.23 36.59-5.41 31.75 0 49.48 23.51 49.48 48-.18 24.47-17.73 50.59-49.48 50.59a47.863 47.863 0 0 1-22-5.22v70.15l-14.59-.02Zm191.64-72.89c-12.7 4.49-24.09 7.29-37.54 7.29-26.7 0-48.35-15.31-48.35-43.51v-53.78h14.57v53.77c0 20.18 15.11 30.46 33.61 30.46 8 0 15.68-.56 23-3.36v-81h14.76v90.18l-.05-.05Zm96.92-42c-.19-17.55-12.33-36.78-34.92-36.78a60.206 60.206 0 0 0-21.83 4.11v66.28c6.9 2.05 14.56 2.61 21.83 2.8 22.79 0 35.11-19 34.92-36.4M579.38 415v40a46.348 46.348 0 0 1 21.83-5c31.75 0 49.3 25.39 49.3 49.85.19 24.45-17.36 48.92-49.3 48.92-11.76 0-24.27-1.12-36.4-5.23V415h14.57Zm122.17 132c-19.42 2.05-29.88-7.46-29.88-28.2V415h14.75v103.8c0 10.65 2.79 16.25 15.12 15.31V547h.01Zm24.6-63.14h14.74v62.76h-14.74v-62.76Zm-.15-33.78h15.13v20.09H726v-20.09Zm110 22.61a36.242 36.242 0 0 0-25.26-9.69c-17.37-.19-33.42 14.38-33.62 36.6 0 17.37 11.21 35.47 33.8 35.47a38.805 38.805 0 0 0 25.77-10.45l8.22 9.89a48.159 48.159 0 0 1-34 13.63c-32.12 0-48.36-24.28-48.36-48.92.19-24.64 16.8-49.29 48.36-49.47 13.26 0 23.9 4.11 33.05 13.07l-8 9.9.04-.03Zm-657.6-19.76 1.49 12.33c11.21-17.94 33.63-14.38 44.46-9.71l-3.92 8a31.09 31.09 0 0 0-5-1.91c-16.8-4.8-35.86 5.07-35.35 25.26v60.71h-9.58v-94.68h7.9ZM317 495c-1.12-20.37-15.69-34-35.3-34.37-22 .19-34 15.32-36.61 34.37H317Zm-6.54 32.5 7.28 5c-9 11-21.67 16.44-35.87 16.44-30.45 0-46-26-45.77-49.5 0-23.72 15.88-47.64 45.58-47.82 25.78-.18 43.9 20 43.9 45.39 0 2.24-.19 3.73-.37 6.16H245c1.31 18.68 14.38 36.62 36.8 36.62 10.65 0 21.86-3.92 28.58-12.34M430.65 599l-4.13 15.38h-6l-8-30.63h5.17l5.17 21.11.7 5.21h.17l.82-5.21 4.57-17.47h5.47l4.56 17.47.82 5.21h.17l.7-5.21 5.16-21.12h5.17l-8 30.63h-6L433 599l-1.09-6h-.17l-1.09 6Zm60.06-15.29h5v30.55h-5V583.7v.01Zm55.58 14.37c3.43 0 5.61-1.73 5.61-4.86 0-3.13-2.3-4.91-5.61-4.91h-5v9.77h5Zm12 16.17h-5.91l-9-11.78h-2.13v11.78h-5v-30.46h10c6 0 10.56 2.69 10.65 9.42 0 5.52-3.43 8.43-7.82 9.08l9.17 12 .04-.04Zm55.19-26.12h-12.12v8.61h11.91v4.48h-11.91v8.47h12.12v4.52h-17.11v-30.55h17.07v4.47h.04Zm56.5 26.12h-16.2v-30.43h5v25.86h11.17v4.56l.03.01Zm56-26.12h-12.1v8.61h11.91v4.48h-11.91v8.47H726v4.52h-17.11v-30.55H726v4.47h-.02Zm48.85 8.26c4.7 1.22 9.6 3.18 9.35 10-.31 5.78-5.48 8.52-10.25 8.52a10.622 10.622 0 0 1-10.08-7l3.78-2c1.44 3.09 3.87 4.48 6.43 4.48 3 0 5.08-1.7 5.21-4.26.26-3.65-3.22-4.78-5.74-5.44-3.86-1-9-2.95-8.77-9.07.13-6 5-8.56 9.6-8.56a9.834 9.834 0 0 1 9.39 6.77l-3.91 1.79a6.068 6.068 0 0 0-5.52-4.13 4.356 4.356 0 0 0-4.3 2.543 4.37 4.37 0 0 0-.39 1.717c-.17 2.87 3 4 5.21 4.6m58.68 0c4.69 1.22 9.6 3.18 9.34 10-.31 5.78-5.47 8.52-10.26 8.52a10.622 10.622 0 0 1-10.08-7l3.78-2c1.43 3.09 3.86 4.48 6.43 4.48 3 0 5.08-1.7 5.21-4.26.27-3.65-3.21-4.78-5.73-5.44-3.86-1-9-2.95-8.78-9.07.13-6 5-8.56 9.6-8.56a9.813 9.813 0 0 1 9.39 6.77l-3.91 1.79a6.056 6.056 0 0 0-5.52-4.13 4.368 4.368 0 0 0-3.269 1.116 4.36 4.36 0 0 0-1.431 3.144c-.17 2.87 3 4 5.22 4.6m-23.73-168.22a44.378 44.378 0 0 0-31.48 13l-13.24-13.24a63.257 63.257 0 0 1 44.725-18.526 63.245 63.245 0 0 1 44.725 18.526l-13.24 13.24a44.387 44.387 0 0 0-31.48-13h-.01Z"/>
   </g>
   <defs>
      <clipPath id="a">
         <path fill="#fff" d="M0 0h1024v1024H0z"/>
      </clipPath>
   </defs>
</svg>
